Obsidian-SemiLight/actions/24s/view-table-of-contents-rtl.svg

<svg xmlns="http://www.w3.org/2000/svg" viewBox="0 0 24 24">
  <defs id="defs3051">
    <style type="text/css" id="current-color-scheme">
      .ColorScheme-Text {
        color:#4d4d4d;
      }
      </style>
  </defs>
 <path style="fill:currentColor;fill-opacity:1;stroke:none" 
     d="M 4 3.9980469 L 4 4.9980469 L 14 4.9980469 L 14 3.9980469 L 4 3.9980469 z M 17 4 L 17 5 L 18 5 L 18 7 L 17 7 L 17 8 L 18 8 L 19 8 L 20 8 L 20 7 L 19 7 L 19 5 L 20 5 L 20 4 L 19 4 L 18 4 L 17 4 z M 4 5.9980469 L 4 6.9980469 L 10 6.9980469 L 10 5.9980469 L 4 5.9980469 z M 11 5.9980469 L 11 6.9980469 L 12 6.9980469 L 12 5.9980469 L 11 5.9980469 z M 13 5.9980469 L 13 6.9980469 L 14 6.9980469 L 14 5.9980469 L 13 5.9980469 z M 15 5.9980469 L 15 6.9980469 L 16 6.9980469 L 16 5.9980469 L 15 5.9980469 z M 4 9.9980469 L 4 10.998047 L 12 10.998047 L 12 9.9980469 L 4 9.9980469 z M 15 10 L 15 11 L 16 11 L 16 13 L 15 13 L 15 14 L 20 14 L 20 13 L 19 13 L 19 11 L 20 11 L 20 10 L 15 10 z M 17 11 L 18 11 L 18 13 L 17 13 L 17 11 z M 4 11.998047 L 4 12.998047 L 8 12.998047 L 8 11.998047 L 4 11.998047 z M 9 11.998047 L 9 12.998047 L 10 12.998047 L 10 11.998047 L 9 11.998047 z M 11 11.998047 L 11 12.998047 L 12 12.998047 L 12 11.998047 L 11 11.998047 z M 13 11.998047 L 13 12.998047 L 14 12.998047 L 14 11.998047 L 13 11.998047 z M 4 15.998047 L 4 16.998047 L 11 16.998047 L 11 15.998047 L 4 15.998047 z M 13 16 L 13 17 L 14 17 L 14 19 L 13 19 L 13 20 L 14 20 L 15 20 L 16 20 L 20 20 L 20 19 L 19 19 L 19 17 L 20 17 L 20 16 L 16 16 L 15 16 L 14 16 L 13 16 z M 15 17 L 16 17 L 16 19 L 15 19 L 15 17 z M 17 17 L 18 17 L 18 19 L 17 19 L 17 17 z M 4 17.998047 L 4 18.998047 L 6 18.998047 L 6 17.998047 L 4 17.998047 z M 7 17.998047 L 7 18.998047 L 8 18.998047 L 8 17.998047 L 7 17.998047 z M 9 17.998047 L 9 18.998047 L 10 18.998047 L 10 17.998047 L 9 17.998047 z M 11 17.998047 L 11 18.998047 L 12 18.998047 L 12 17.998047 L 11 17.998047 z "
     class="ColorScheme-Text"
     />
</svg>

<svg viewBox="0 0 24 24" xmlns="http://www.w3.org/2000/svg"><path d="m4 3.9980469v1h10v-1zm13 .0019531v1h1v2h-1v1h1 1 1v-1h-1v-2h1v-1h-1-1zm-13 1.9980469v1h6v-1zm7 0v1h1v-1zm2 0v1h1v-1zm2 0v1h1v-1zm-11 4v1.0000001h8v-1.0000001zm11 .0019531v1h1v2h-1v1h5v-1h-1v-2h1v-1zm2 1h1v2h-1zm-13 .998047v1h4v-1zm5 0v1h1v-1zm2 0v1h1v-1zm2 0v1h1v-1zm-9 4v1h7v-1zm9 .001953v1h1v2h-1v1h1 1 1 4v-1h-1v-2h1v-1h-4-1-1zm2 1h1v2h-1zm2 0h1v2h-1zm-13 .998047v1h2v-1zm3 0v1h1v-1zm2 0v1h1v-1zm2 0v1h1v-1z" fill="#4d4d4d"/></svg>
